remix/Media/vidicon-2-line.svg

<svg viewBox="0 0 24 24" fill="currentColor" xmlns="http://www.w3.org/2000/svg"><path d="M13 6V4H5V2H15V6H16C16.5523 6 17 6.44772 17 7V9.2L22.2133 5.55071C22.4395 5.39235 22.7513 5.44737 22.9096 5.6736C22.9684 5.75764 23 5.85774 23 5.96033V18.0397C23 18.3158 22.7761 18.5397 22.5 18.5397C22.3974 18.5397 22.2973 18.5081 22.2133 18.4493L17 14.8V19C17 19.5523 16.5523 20 16 20H2C1.44772 20 1 19.5523 1 19V7C1 6.44772 1.44772 6 2 6H13ZM15 8H3V18H15V8ZM17 12.3587L21 15.1587V8.84131L17 11.6413V12.3587ZM5 10H7V12H5V10Z"/></svg>

<svg viewBox="0 0 24 24" xmlns="http://www.w3.org/2000/svg"><path fill="none" d="M0 0h24v24H0Z"/><path d="M13 6V4H5V2h10v4h1v0c.55 0 1 .44 1 1v2.2l5.21-3.65V5.54c.22-.16.53-.11.69.12 .05.08.09.18.09.28v12.08 0c0 .27-.23.5-.5.5 -.11 0-.21-.04-.29-.1l-5.22-3.65v4.2 0c0 .55-.45 1-1 1h-14v0c-.56 0-1-.45-1-1v-12 0c0-.56.44-1 1-1h11Zm2 2H3v10h12V8Zm2 4.359l4 2.8V8.83l-4 2.8v.718ZM5 10h2v2H5v-2Z"/></svg>
